X: 40879
T: Tribute To Paddy Fahey
R: reel
M: 4/4
K: Gmajor
DF|:Ggdc BGGE|=FCA,C FGAc|BGAF GG,_B,D|G_BA=F G2 D^F|
Ggdc BGGE|=FCA,C FGAc|dBcA BGAF|1 GD_B,A, G,2 DF:|2 GD_B,A, G,2 GA||
|:_BGA=F G2 ga|_bga=f g^fde|=f2 eg fdcA|G_BAG =FDCA,|
G,_B,DG _B2 A=F|G_Bdg _b2 ag|=f2 eg fdcA|1 G_BA=F G2 GA:|2 G_BA=F G2 D^F||

